static/img/kroki/3d3b549c5d5d6452582f02b5b01d28f5.svg

<?xml version="1.0" encoding="us-ascii" standalone="no"?><svg xmlns="http://www.w3.org/2000/svg" xmlns:xlink="http://www.w3.org/1999/xlink" contentStyleType="text/css" height="535px" preserveAspectRatio="none" style="width:391px;height:535px;" version="1.1" viewBox="0 0 391 535" width="391px" zoomAndPan="magnify"><defs/><g><!--class azure_compute_virtual_machine--><g id="elem_azure_compute_virtual_machine"><rect codeLine="23" fill="#3D176E" height="39.7891" id="azure_compute_virtual_machine" rx="2.5" ry="2.5" style="stroke:#000D19;stroke-width:0.5;" width="315" x="30.5" y="489.37"/><ellipse cx="45.5" cy="509.2645" fill="#ADD1B2" rx="11" ry="11" style="stroke:#181818;stroke-width:1.0;"/><path d="M48.4688,514.9052 Q47.8906,515.202 47.25,515.3427 Q46.6094,515.4989 45.9063,515.4989 Q43.4063,515.4989 42.0781,513.8583 Q40.7656,512.202 40.7656,509.077 Q40.7656,505.952 42.0781,504.2958 Q43.4063,502.6395 45.9063,502.6395 Q46.6094,502.6395 47.25,502.7958 Q47.9063,502.952 48.4688,503.2489 L48.4688,505.9677 Q47.8438,505.3895 47.25,505.1239 Q46.6563,504.8427 46.0313,504.8427 Q44.6875,504.8427 44,505.9208 Q43.3125,506.9833 43.3125,509.077 Q43.3125,511.1708 44,512.2489 Q44.6875,513.3114 46.0313,513.3114 Q46.6563,513.3114 47.25,513.0458 Q47.8438,512.7645 48.4688,512.1864 L48.4688,514.9052 Z " fill="#000000"/><text fill="#D9B8FF" font-family="Helvetica" font-size="17" lengthAdjust="spacing" textLength="273" x="64.5" y="515.1498">azure_compute_virtual_machine</text></g><!--class azure_compute_virtual_machine_base--><g id="elem_azure_compute_virtual_machine_base"><rect codeLine="26" fill="#3D176E" height="39.7891" id="azure_compute_virtual_machine_base" rx="2.5" ry="2.5" style="stroke:#000D19;stroke-width:0.5;" width="362" x="7" y="328.58"/><ellipse cx="22" cy="348.4745" fill="#ADD1B2" rx="11" ry="11" style="stroke:#181818;stroke-width:1.0;"/><path d="M24.9688,354.1152 Q24.3906,354.412 23.75,354.5527 Q23.1094,354.7089 22.4063,354.7089 Q19.9063,354.7089 18.5781,353.0683 Q17.2656,351.412 17.2656,348.287 Q17.2656,345.162 18.5781,343.5058 Q19.9063,341.8495 22.4063,341.8495 Q23.1094,341.8495 23.75,342.0058 Q24.4063,342.162 24.9688,342.4589 L24.9688,345.1777 Q24.3438,344.5995 23.75,344.3339 Q23.1563,344.0527 22.5313,344.0527 Q21.1875,344.0527 20.5,345.1308 Q19.8125,346.1933 19.8125,348.287 Q19.8125,350.3808 20.5,351.4589 Q21.1875,352.5214 22.5313,352.5214 Q23.1563,352.5214 23.75,352.2558 Q24.3438,351.9745 24.9688,351.3964 L24.9688,354.1152 Z " fill="#000000"/><text fill="#D9B8FF" font-family="Helvetica" font-size="17" lengthAdjust="spacing" textLength="320" x="41" y="354.3598">azure_compute_virtual_machine_base</text></g><!--class instance--><g id="elem_instance"><rect codeLine="29" fill="#3D176E" height="39.7891" id="instance" rx="2.5" ry="2.5" style="stroke:#000D19;stroke-width:0.5;" width="112" x="37" y="167.79"/><ellipse cx="52" cy="187.6845" fill="#ADD1B2" rx="11" ry="11" style="stroke:#181818;stroke-width:1.0;"/><path d="M54.9688,193.3252 Q54.3906,193.622 53.75,193.7627 Q53.1094,193.9189 52.4063,193.9189 Q49.9063,193.9189 48.5781,192.2783 Q47.2656,190.622 47.2656,187.497 Q47.2656,184.372 48.5781,182.7158 Q49.9063,181.0595 52.4063,181.0595 Q53.1094,181.0595 53.75,181.2158 Q54.4063,181.372 54.9688,181.6689 L54.9688,184.3877 Q54.3438,183.8095 53.75,183.5439 Q53.1563,183.2627 52.5313,183.2627 Q51.1875,183.2627 50.5,184.3408 Q49.8125,185.4033 49.8125,187.497 Q49.8125,189.5908 50.5,190.6689 Q51.1875,191.7314 52.5313,191.7314 Q53.1563,191.7314 53.75,191.4658 Q54.3438,191.1845 54.9688,190.6064 L54.9688,193.3252 Z " fill="#000000"/><text fill="#D9B8FF" font-family="Helvetica" font-size="17" lengthAdjust="spacing" textLength="70" x="71" y="193.5698">instance</text></g><!--class microsoft_resource--><g id="elem_microsoft_resource"><rect codeLine="32" fill="#3D176E" height="39.7891" id="microsoft_resource" rx="2.5" ry="2.5" style="stroke:#000D19;stroke-width:0.5;" width="200" x="184" y="167.79"/><ellipse cx="199" cy="187.6845" fill="#ADD1B2" rx="11" ry="11" style="stroke:#181818;stroke-width:1.0;"/><path d="M201.9688,193.3252 Q201.3906,193.622 200.75,193.7627 Q200.1094,193.9189 199.4063,193.9189 Q196.9063,193.9189 195.5781,192.2783 Q194.2656,190.622 194.2656,187.497 Q194.2656,184.372 195.5781,182.7158 Q196.9063,181.0595 199.4063,181.0595 Q200.1094,181.0595 200.75,181.2158 Q201.4063,181.372 201.9688,181.6689 L201.9688,184.3877 Q201.3438,183.8095 200.75,183.5439 Q200.1563,183.2627 199.5313,183.2627 Q198.1875,183.2627 197.5,184.3408 Q196.8125,185.4033 196.8125,187.497 Q196.8125,189.5908 197.5,190.6689 Q198.1875,191.7314 199.5313,191.7314 Q200.1563,191.7314 200.75,191.4658 Q201.3438,191.1845 201.9688,190.6064 L201.9688,193.3252 Z " fill="#000000"/><text fill="#D9B8FF" font-family="Helvetica" font-size="17" lengthAdjust="spacing" textLength="158" x="218" y="193.5698">microsoft_resource</text></g><!--class resource--><g id="elem_resource"><rect codeLine="35" fill="#3D176E" height="39.7891" id="resource" rx="2.5" ry="2.5" style="stroke:#000D19;stroke-width:0.5;" width="113" x="131.5" y="7"/><ellipse cx="146.5" cy="26.8945" fill="#ADD1B2" rx="11" ry="11" style="stroke:#181818;stroke-width:1.0;"/><path d="M149.4688,32.5352 Q148.8906,32.832 148.25,32.9727 Q147.6094,33.1289 146.9063,33.1289 Q144.4063,33.1289 143.0781,31.4883 Q141.7656,29.832 141.7656,26.707 Q141.7656,23.582 143.0781,21.9258 Q144.4063,20.2695 146.9063,20.2695 Q147.6094,20.2695 148.25,20.4258 Q148.9063,20.582 149.4688,20.8789 L149.4688,23.5977 Q148.8438,23.0195 148.25,22.7539 Q147.6563,22.4727 147.0313,22.4727 Q145.6875,22.4727 145,23.5508 Q144.3125,24.6133 144.3125,26.707 Q144.3125,28.8008 145,29.8789 Q145.6875,30.9414 147.0313,30.9414 Q147.6563,30.9414 148.25,30.6758 Q148.8438,30.3945 149.4688,29.8164 L149.4688,32.5352 Z " fill="#000000"/><text fill="#D9B8FF" font-family="Helvetica" font-size="17" lengthAdjust="spacing" textLength="71" x="165.5" y="32.7798">resource</text></g><!--reverse link azure_compute_virtual_machine_base to azure_compute_virtual_machine--><g id="link_azure_compute_virtual_machine_base_azure_compute_virtual_machine"><path codeLine="38" d="M188,386.63 C188,417.15 188,458.48 188,489.04 " fill="none" id="azure_compute_virtual_machine_base-backto-azure_compute_virtual_machine" style="stroke:#FFAF37;stroke-width:2.0;"/><polygon fill="none" points="188,368.63,182,386.63,194,386.63,188,368.63" style="stroke:#FFAF37;stroke-width:2.0;"/></g><!--reverse link instance to azure_compute_virtual_machine_base--><g id="link_instance_azure_compute_virtual_machine_base"><path codeLine="39" d="M113.7016,223.2865 C131.9616,253.8065 158.22,297.69 176.5,328.25 " fill="none" id="instance-backto-azure_compute_virtual_machine_base" style="stroke:#FFAF37;stroke-width:2.0;"/><polygon fill="none" points="104.46,207.84,108.5527,226.367,118.8504,220.2059,104.46,207.84" style="stroke:#FFAF37;stroke-width:2.0;"/></g><!--reverse link microsoft_resource to azure_compute_virtual_machine_base--><g id="link_microsoft_resource_azure_compute_virtual_machine_base"><path codeLine="40" d="M263.1079,223.2441 C244.6579,253.7641 218.1,297.69 199.62,328.25 " fill="none" id="microsoft_resource-backto-azure_compute_virtual_machine_base" style="stroke:#FFAF37;stroke-width:2.0;"/><polygon fill="none" points="272.42,207.84,257.9732,220.14,268.2426,226.3481,272.42,207.84" style="stroke:#FFAF37;stroke-width:2.0;"/></g><!--reverse link resource to instance--><g id="link_resource_instance"><path codeLine="41" d="M167.2984,62.4965 C149.0384,93.0165 122.78,136.9 104.5,167.47 " fill="none" id="resource-backto-instance" style="stroke:#FFAF37;stroke-width:2.0;"/><polygon fill="none" points="176.54,47.05,162.1496,59.4159,172.4473,65.577,176.54,47.05" style="stroke:#FFAF37;stroke-width:2.0;"/></g><!--reverse link resource to microsoft_resource--><g id="link_resource_microsoft_resource"><path codeLine="42" d="M208.8921,62.4541 C227.3421,92.9741 253.9,136.9 272.38,167.47 " fill="none" id="resource-backto-microsoft_resource" style="stroke:#FFAF37;stroke-width:2.0;"/><polygon fill="none" points="199.58,47.05,203.7574,65.5581,214.0268,59.35,199.58,47.05" style="stroke:#FFAF37;stroke-width:2.0;"/></g><!--SRC=[ZP5BRy8m48Jl-HMME2D1KGj8lL2aghsWglGURUmriOZjQEs0eEr_Bu-278T7hZEVTsRNkHB8K9T-mpJg3CabRgbC2GIQJOZiUceBIwmZ9SZ1C3PVhV5tWHbeP6zOhD0h3Z7nbIk-DEWSUmYi5-3B1TdAYEDuJs3SpaBZ0sfQW7CJxqbbbSUWZ1Xd8obZCXxQ6OZ-y0aRc2M1z8_qUZtH7yV8tQYRUv-9kTeYwuT7crcFZPgDY0Dri-MU24es5ZtvLpj-W13ABDXZe7qUEv51gkdp78HTxsa9XGjZd4T2wpSbJXjRuNWavF0Y_7uDJlZ-T0os5M7AhIvttvwk5FaAYbG3pvL1zfqalst0D0DNevLn7WolQLfniivAdn8wMr7ThMijqfv_kjtkxLh9kKOB-30rkL2ozTlenIayrfiHoHy0]--></g></svg>

<svg xmlns="http://www.w3.org/2000/svg" width="391" height="535" viewBox="0 0 391 535"><rect width="315" height="39.789" x="30.5" y="489.37" fill="#3D176E" rx="2.5" ry="2.5" style="stroke:#000d19;stroke-width:.5"/><circle cx="45.5" cy="509.264" r="11" fill="#ADD1B2" style="stroke:#181818;stroke-width:1"/><path d="M48.469 514.905q-.578.297-1.219.438-.64.156-1.344.156-2.5 0-3.828-1.64-1.312-1.657-1.312-4.782t1.312-4.781q1.328-1.656 3.828-1.656.703 0 1.344.156.656.156 1.219.453v2.719q-.625-.579-1.219-.844-.594-.281-1.219-.281-1.343 0-2.031 1.078-.687 1.062-.687 3.156t.687 3.172q.688 1.062 2.031 1.062.625 0 1.219-.265.594-.282 1.219-.86z"/><text x="64.5" y="515.15" fill="#D9B8FF" font-family="Helvetica" font-size="17" textLength="273">azure_compute_virtual_machine</text><rect width="362" height="39.789" x="7" y="328.58" fill="#3D176E" rx="2.5" ry="2.5" style="stroke:#000d19;stroke-width:.5"/><circle cx="22" cy="348.474" r="11" fill="#ADD1B2" style="stroke:#181818;stroke-width:1"/><path d="M24.969 354.115q-.578.297-1.219.438-.64.156-1.344.156-2.5 0-3.828-1.64-1.312-1.657-1.312-4.782t1.312-4.781q1.328-1.656 3.828-1.656.703 0 1.344.156.656.156 1.219.453v2.719q-.625-.579-1.219-.844-.594-.281-1.219-.281-1.343 0-2.031 1.078-.687 1.062-.687 3.156t.687 3.172q.688 1.062 2.031 1.062.625 0 1.219-.265.594-.281 1.219-.86z"/><text x="41" y="354.36" fill="#D9B8FF" font-family="Helvetica" font-size="17" textLength="320">azure_compute_virtual_machine_base</text><rect width="112" height="39.789" x="37" y="167.79" fill="#3D176E" rx="2.5" ry="2.5" style="stroke:#000d19;stroke-width:.5"/><circle cx="52" cy="187.685" r="11" fill="#ADD1B2" style="stroke:#181818;stroke-width:1"/><path d="M54.969 193.325q-.578.297-1.219.438-.64.156-1.344.156-2.5 0-3.828-1.64-1.312-1.657-1.312-4.782t1.312-4.781q1.328-1.656 3.828-1.656.703 0 1.344.156.656.156 1.219.453v2.719q-.625-.578-1.219-.844-.594-.281-1.219-.281-1.343 0-2.031 1.078-.687 1.062-.687 3.156t.687 3.172q.688 1.062 2.031 1.062.625 0 1.219-.265.594-.281 1.219-.86z"/><text x="71" y="193.57" fill="#D9B8FF" font-family="Helvetica" font-size="17" textLength="70">instance</text><rect width="200" height="39.789" x="184" y="167.79" fill="#3D176E" rx="2.5" ry="2.5" style="stroke:#000d19;stroke-width:.5"/><circle cx="199" cy="187.685" r="11" fill="#ADD1B2" style="stroke:#181818;stroke-width:1"/><path d="M201.969 193.325q-.578.297-1.219.438-.64.156-1.344.156-2.5 0-3.828-1.64-1.312-1.657-1.312-4.782t1.312-4.781q1.328-1.656 3.828-1.656.703 0 1.344.156.656.156 1.219.453v2.719q-.625-.578-1.219-.844-.594-.281-1.219-.281-1.344 0-2.031 1.078-.687 1.062-.687 3.156t.687 3.172q.688 1.062 2.031 1.062.625 0 1.219-.265.594-.281 1.219-.86z"/><text x="218" y="193.57" fill="#D9B8FF" font-family="Helvetica" font-size="17" textLength="158">microsoft_resource</text><rect width="113" height="39.789" x="131.5" y="7" fill="#3D176E" rx="2.5" ry="2.5" style="stroke:#000d19;stroke-width:.5"/><circle cx="146.5" cy="26.895" r="11" fill="#ADD1B2" style="stroke:#181818;stroke-width:1"/><path d="M149.469 32.535q-.578.297-1.219.438-.64.156-1.344.156-2.5 0-3.828-1.64-1.312-1.657-1.312-4.782t1.312-4.781q1.328-1.656 3.828-1.656.703 0 1.344.156.656.156 1.219.453v2.719q-.625-.578-1.219-.844-.594-.281-1.219-.281-1.344 0-2.031 1.078-.687 1.062-.687 3.156t.687 3.172q.688 1.062 2.031 1.062.625 0 1.219-.265.594-.281 1.219-.86z"/><text x="165.5" y="32.78" fill="#D9B8FF" font-family="Helvetica" font-size="17" textLength="71">resource</text><path fill="none" d="M188 386.63v102.41m0-120.41-6 18h12zm-74.298-145.343c18.26 30.52 44.518 74.403 62.798 104.963m-72.04-120.41 4.093 18.527 10.297-6.161z" style="stroke:#ffaf37;stroke-width:2"/><g fill="none"><path d="M263.108 223.244c-18.45 30.52-45.008 74.446-63.488 105.006" style="stroke:#ffaf37;stroke-width:2"/><path d="m272.42 207.84-14.447 12.3 10.27 6.208z" style="stroke:#ffaf37;stroke-width:2"/></g><path fill="none" d="M167.298 62.497C149.038 93.017 122.78 136.9 104.5 167.47m72.04-120.42-14.39 12.366 10.297 6.161z" style="stroke:#ffaf37;stroke-width:2"/><g fill="none"><path d="M208.892 62.454c18.45 30.52 45.008 74.446 63.488 105.016" style="stroke:#ffaf37;stroke-width:2"/><path d="m199.58 47.05 4.177 18.508 10.27-6.208z" style="stroke:#ffaf37;stroke-width:2"/></g></svg>
